packages/katcn/src/icons/svg/upload-solid.svg

<svg width="24" height="24" viewBox="0 0 24 24" fill="none" xmlns="http://www.w3.org/2000/svg">
<path d="M23 11C23 13.6 20.871 15.8 18.1336 15.8H12.9631V18.6L13.977 17.6C14.3825 17.2 14.9908 17.2 15.3963 17.6C15.8018 18 15.8018 18.6 15.3963 19L12.659 21.7C12.4562 21.9 12.2535 22 11.9493 22C11.6452 22 11.4424 21.9 11.2396 21.7L10.53 21L9.00922 19.5L8.60369 19C8.19816 18.6 8.19816 18 8.60369 17.6C8.70507 17.5 8.80645 17.4 9.00922 17.4C9.31336 17.3 9.71889 17.4 10.023 17.6L11.0369 18.6V10.3C11.0369 9.7 10.53 9.3 10.023 9.3C9.51613 9.3 9.00922 9.7 9.00922 10.3V15.8H5.86636C3.12903 15.7 1 13.6 1 11C1 8.4 3.12903 6.2 5.86636 6.2C6.06912 6.2 6.27189 6.2 6.37327 6.2C7.48848 4.3 9.61751 3 11.9493 3C14.2811 3 16.4101 4.3 17.6267 6.3C17.8295 6.3 17.9309 6.3 18.1336 6.3C20.871 6.2 23 8.4 23 11Z" fill="black"/>
</svg>

<svg xmlns="http://www.w3.org/2000/svg" fill="none" viewBox="0 0 24 24"><path fill="#000" d="M23 11c0 2.6-2.129 4.8-4.866 4.8h-5.17v2.8l1.013-1a.99.99 0 0 1 1.42 0c.405.4.405 1 0 1.4l-2.738 2.7c-.203.2-.405.3-.71.3s-.507-.1-.71-.3l-.709-.7-1.52-1.5-.406-.5a.96.96 0 0 1 0-1.4c.101-.1.202-.2.405-.2.304-.1.71 0 1.014.2l1.014 1v-8.3c0-.6-.507-1-1.014-1s-1.014.4-1.014 1v5.5H5.866C3.13 15.7 1 13.6 1 11s2.129-4.8 4.866-4.8h.507C7.488 4.3 9.618 3 11.95 3s4.461 1.3 5.678 3.3h.507C20.87 6.2 23 8.4 23 11"/></svg>
